X:2
T:Clog Dance (Craig 2)
M:C|
L:1/8
B:Empire Violin Collection of Hornpipes
H:Published by Thomas Craig
H:Music Publisher, &c.
H:George Street, Aberdeen, N.B.
Z:Peter Dunk December 2011
R:hornpipe
Q:1/2=70
K:A
E2 | A2- A>c B>AF>E | A>ce>a Tf2e2 | f>ec>A B>AF>A | B>cB>A F2 c>B |!
A2- A>c B>AF>E | A>ce>a Tf2e2 | f>ec>A B>AF>E | A2A2A2:|!
|:c>d | e>fe>c A2 a>g | f>ed>c d>ef>g | a>gf>e d>cB>A | B>Ac>A F2 c>B |!
A2- A>c B>AF>E | A>ce>a Tf2e2 | f>ec>A B>AF>A | A2A2A2:|

